app/dist/common/images/ricardo-plc.svg

<svg height="18" viewBox="0 0 18 18" width="18" xmlns="http://www.w3.org/2000/svg"><path d="m0 0h18v18h-18z" fill="#f0f3fa"/><path d="m12.1 5h-9.1v5h5v-1.67h1.13c.45 0 .87.16.87.79v.88h5c0-1.33-.6-2.04-1.94-2.36.51-.06 1-.08 1.4-.4.38-.34.6-1.12-.1-1.75-.5-.43-1.28-.49-2.27-.49zm-2.6 2h-1.5v-.67h1.48c.23-.01.52.06.52.34 0 .26-.28.35-.5.33z" fill="#0067b1"/><path d="m15 10.5h-12v2.5h12zm-11-5.5h-.33v5h.33z" fill="#a6b1b7"/><path d="m4 11h10v1.5h-10z" fill="#f0f3fa" opacity=".7"/></svg>

<!-- by TradingView --><svg width="18" height="18" viewBox="0 0 18 18" xmlns="http://www.w3.org/2000/svg"><path fill="#F0F3FA" d="M0 0h18v18H0z"/><path d="M12.1 5H3v5h5V8.33h1.13c.45 0 .87.16.87.79V10h5c0-1.33-.6-2.04-1.94-2.36.51-.06 1-.08 1.4-.4.38-.34.6-1.12-.1-1.75-.5-.43-1.28-.49-2.27-.49ZM9.5 7H8v-.67h1.48c.23-.01.52.06.52.34 0 .26-.28.35-.5.33Z" fill="#0067B1"/><path d="M15 10.5H3V13h12v-2.5ZM4 5h-.33v5H4V5Z" fill="#A6B1B7"/><path opacity=".7" fill="#F0F3FA" d="M4 11h10v1.5H4z"/></svg>
